assets/svg/app/stake.svg

<svg width="52" height="52" viewBox="0 0 52 52" fill="none" xmlns="http://www.w3.org/2000/svg">
<g filter="url(#filter0_d-734791)">
<circle cx="26.3471" cy="26.3472" r="16.6528" transform="rotate(-90 26.3471 26.3472)" fill="#4B3914"/>
<circle cx="26.3471" cy="26.3472" r="16.058" transform="rotate(-90 26.3471 26.3472)" stroke="#FFD75C" stroke-width="1.18948"/>
</g>
<g filter="url(#filter1_d-999902)">
<path d="M28.7687 26.3364L31.7329 29.2973C34.0876 31.652 34.6904 32.2748 34.6904 32.3414C34.6904 32.408 34.0876 33.0275 31.7529 35.3622C30.1342 36.9775 28.7987 38.2998 28.7787 38.2998C28.7154 38.2998 27.1367 36.6811 27.1367 36.6178C27.1367 36.5812 27.7529 35.9417 28.6588 35.0358L30.1809 33.5138L24.1026 33.5138L18.0243 33.5138L18.0243 32.3414L18.0243 31.1691L24.1026 31.1691L30.1809 31.1691L28.6588 29.647C27.8228 28.8077 27.1367 28.0983 27.1367 28.0716C27.1367 28.045 27.1667 27.995 27.2033 27.9617C27.24 27.9318 27.27 27.8851 27.27 27.8685C27.27 27.8518 27.6063 27.4988 28.0193 27.0858L28.7687 26.3364Z" fill="#FFD75C"/>
<path d="M22.5372 19.2523L28.6155 19.2523L34.6871 19.2523L34.6871 20.4247L34.6871 21.597L28.6088 21.597L22.5306 21.597L24.0526 23.1191C24.9585 24.025 25.5747 24.6645 25.5747 24.7011C25.5747 24.7644 23.9927 26.383 23.9327 26.383C23.9127 26.383 22.5739 25.0608 20.9585 23.4455C18.6238 21.1108 18.021 20.488 18.021 20.4247C18.021 20.3614 18.6305 19.7352 20.9852 17.3805L23.9494 14.4197L24.6988 15.1691C25.1117 15.5787 25.4481 15.9317 25.4481 15.9517C25.4481 15.9684 25.4781 16.0117 25.5147 16.045C25.5514 16.075 25.5814 16.125 25.5814 16.1549C25.5814 16.1849 24.8953 16.8943 24.0593 17.7303L22.5372 19.2523Z" fill="#FFD75C"/>
<path d="M24.1026 32.919L18.6191 32.919L18.6191 32.3414L18.6191 31.7638L24.1026 31.7638L30.1809 31.7638L31.6167 31.7638L30.6014 30.7485L29.0802 29.2273C29.0801 29.2272 29.08 29.2271 29.0799 29.227C28.6635 28.8089 28.2852 28.424 28.0119 28.1412C27.978 28.1061 27.9458 28.0727 27.9155 28.0411C27.9169 28.0397 27.9183 28.0382 27.9197 28.0367C28.0517 27.8986 28.2358 27.7104 28.4399 27.5063L28.7689 27.1773L31.3123 29.7178C31.3124 29.7179 31.3125 29.718 31.3126 29.7181C32.4903 30.8957 33.2265 31.637 33.668 32.0917C33.7616 32.1881 33.841 32.2706 33.9077 32.3409C33.8416 32.4103 33.7632 32.4916 33.6708 32.5866C33.2317 33.0382 32.5003 33.7737 31.3323 34.9417C30.5235 35.7488 29.7859 36.4823 29.2482 37.0138C29.0637 37.1961 28.9032 37.3543 28.7716 37.4833C28.6459 37.3585 28.5027 37.2138 28.3596 37.0672C28.208 36.9118 28.0584 36.7562 27.932 36.6221C27.9495 36.6038 27.9677 36.5848 27.9865 36.5653C28.2501 36.2914 28.6277 35.908 29.0793 35.4564L30.6014 33.9343L31.6167 32.919L30.1809 32.919L24.1026 32.919ZM22.1167 18.8318L21.1014 19.8471L22.5372 19.8471L28.6155 19.8471L34.0923 19.8471L34.0923 20.4247L34.0923 21.0023L28.6088 21.0023L22.5306 21.0023L21.0947 21.0023L22.11 22.0176L23.6321 23.5396C24.0837 23.9913 24.4613 24.3746 24.7249 24.6485C24.7436 24.668 24.7617 24.6868 24.7791 24.705C24.6524 24.8391 24.5026 24.9947 24.3507 25.1502C24.2076 25.2968 24.0644 25.4414 23.9387 25.5661C23.807 25.4372 23.6464 25.2791 23.4618 25.0969C22.9238 24.5655 22.1862 23.832 21.3791 23.0249C20.2113 21.8572 19.4799 21.1207 19.0408 20.6688C18.9496 20.5749 18.8719 20.4943 18.8062 20.4253C18.8732 20.3552 18.9527 20.2729 19.0462 20.1768C19.4897 19.7213 20.2279 18.979 21.4057 17.8011L23.9491 15.2605L24.2782 15.5896L24.2799 15.5913C24.4835 15.7933 24.6671 15.9801 24.7984 16.1175C24.8006 16.1198 24.8028 16.1221 24.805 16.1244C24.774 16.1567 24.741 16.191 24.7062 16.227C24.4331 16.5095 24.0551 16.8934 23.6387 17.3097L22.1167 18.8318Z" stroke="#FFD75C" stroke-width="1.18948"/>
</g>
<defs>
<filter id="filter0_d-734791" x="0.773206" y="0.773328" width="51.1478" height="51.1478" filterUnits="userSpaceOnUse" color-interpolation-filters="sRGB">
<feFlood flood-opacity="0" result="BackgroundImageFix"/>
<feColorMatrix in="SourceAlpha" type="matrix" values="0 0 0 0 0 0 0 0 0 0 0 0 0 0 0 0 0 0 127 0"/>
<feOffset/>
<feGaussianBlur stdDeviation="4.46057"/>
<feColorMatrix type="matrix" values="0 0 0 0 1 0 0 0 0 0.843137 0 0 0 0 0.360784 0 0 0 0.6 0"/>
<feBlend mode="normal" in2="BackgroundImageFix" result="effect1_dropShadow"/>
<feBlend mode="normal" in="SourceGraphic" in2="effect1_dropShadow" result="shape"/>
</filter>
<filter id="filter1_d-999902" x="9.09987" y="5.49855" width="34.5117" height="41.7224" filterUnits="userSpaceOnUse" color-interpolation-filters="sRGB">
<feFlood flood-opacity="0" result="BackgroundImageFix"/>
<feColorMatrix in="SourceAlpha" type="matrix" values="0 0 0 0 0 0 0 0 0 0 0 0 0 0 0 0 0 0 127 0"/>
<feOffset/>
<feGaussianBlur stdDeviation="4.46057"/>
<feColorMatrix type="matrix" values="0 0 0 0 1 0 0 0 0 0.843137 0 0 0 0 0.360784 0 0 0 0.6 0"/>
<feBlend mode="normal" in2="BackgroundImageFix" result="effect1_dropShadow"/>
<feBlend mode="normal" in="SourceGraphic" in2="effect1_dropShadow" result="shape"/>
</filter>
</defs>
</svg>

<svg width="52" height="52" fill="none" xmlns="http://www.w3.org/2000/svg">
    <g filter="url(#a)" transform="rotate(-90 26.347 26.347)">
        <circle cx="26.347" cy="26.347" r="16.653" fill="#4B3914"/>
        <circle cx="26.347" cy="26.347" r="16.058" stroke="#FFD75C" stroke-width="1.189"/>
    </g>
    <g filter="url(#b)">
        <path d="m28.769 26.336 2.964 2.961c2.355 2.355 2.957 2.978 2.957 3.044 0 .067-.602.687-2.937 3.021-1.619 1.615-2.954 2.938-2.974 2.938-.064 0-1.642-1.619-1.642-1.682 0-.037.616-.676 1.522-1.582l1.522-1.522H18.024v-2.345h12.157l-1.522-1.522c-.836-.84-1.522-1.549-1.522-1.575 0-.027.03-.077.066-.11.037-.03.067-.077.067-.093 0-.017.336-.37.75-.783l.749-.75Zm-6.232-7.084h12.15v2.345H22.531l1.522 1.522c.905.906 1.522 1.546 1.522 1.582 0 .063-1.582 1.682-1.642 1.682-.02 0-1.36-1.322-2.974-2.938-2.335-2.334-2.938-2.957-2.938-3.02 0-.064.61-.69 2.964-3.044l2.964-2.961.75.75c.413.409.75.762.75.782 0 .016.03.06.066.093.036.03.066.08.066.11s-.686.74-1.522 1.575l-1.522 1.522Z" fill="#FFD75C"/>
        <path d="M24.103 32.919h-5.484v-1.155h12.998L30.6 30.749l-1.52-1.522h-.001a107.243 107.243 0 0 1-1.164-1.186l.004-.004c.132-.138.316-.327.52-.53l.329-.33 2.543 2.54v.001a263.754 263.754 0 0 1 2.356 2.374c.094.096.173.179.24.249-.066.07-.145.15-.237.246-.44.451-1.17 1.187-2.339 2.355a663.318 663.318 0 0 1-2.56 2.541 38.383 38.383 0 0 1-.84-.86l.055-.058c.263-.274.64-.657 1.092-1.109l1.522-1.522 1.016-1.015h-7.514Zm-1.986-14.087L21.1 19.847h12.991v1.155H21.095l1.015 1.016 1.522 1.522c.452.451.83.835 1.093 1.108l.054.057a38.265 38.265 0 0 1-.84.861 503.467 503.467 0 0 1-4.898-4.897 34.825 34.825 0 0 1-.235-.244l.24-.248a295.87 295.87 0 0 1 2.36-2.376l2.543-2.54.33.329v.001c.204.202.388.39.52.527l.006.006-.099.103a94.22 94.22 0 0 1-1.067 1.083l-1.522 1.522Z" stroke="#FFD75C" stroke-width="1.189"/>
    </g>
    <defs>
        <filter id="a" x=".773" y=".773" width="51.148" height="51.148" filterUnits="userSpaceOnUse" color-interpolation-filters="sRGB">
            <feFlood flood-opacity="0" result="BackgroundImageFix"/>
            <feColorMatrix in="SourceAlpha" values="0 0 0 0 0 0 0 0 0 0 0 0 0 0 0 0 0 0 127 0"/>
            <feOffset/>
            <feGaussianBlur stdDeviation="4.461"/>
            <feColorMatrix values="0 0 0 0 1 0 0 0 0 0.843137 0 0 0 0 0.360784 0 0 0 0.6 0"/>
            <feBlend in2="BackgroundImageFix" result="effect1_dropShadow"/>
            <feBlend in="SourceGraphic" in2="effect1_dropShadow" result="shape"/>
        </filter>
        <filter id="b" x="9.1" y="5.499" width="34.512" height="41.722" filterUnits="userSpaceOnUse" color-interpolation-filters="sRGB">
            <feFlood flood-opacity="0" result="BackgroundImageFix"/>
            <feColorMatrix in="SourceAlpha" values="0 0 0 0 0 0 0 0 0 0 0 0 0 0 0 0 0 0 127 0"/>
            <feOffset/>
            <feGaussianBlur stdDeviation="4.461"/>
            <feColorMatrix values="0 0 0 0 1 0 0 0 0 0.843137 0 0 0 0 0.360784 0 0 0 0.6 0"/>
            <feBlend in2="BackgroundImageFix" result="effect1_dropShadow"/>
            <feBlend in="SourceGraphic" in2="effect1_dropShadow" result="shape"/>
        </filter>
    </defs>
</svg>
